www/assets/icons/airline_seat_flat_angled.svg

<svg width="24" height="24" viewBox="0 0 24 24" xmlns="http://www.w3.org/2000/svg" fill='currentColor'><path d="M22.2507 14.539L21.5607 16.429L9.20073 11.959L11.2807 6.29902L19.8407 9.38902C21.9407 10.149 23.0207 12.449 22.2507 14.539ZM1.50073 12.389L8.00073 14.729V19.249H16.0007V17.619L20.5207 19.249L21.2107 17.359L2.19073 10.499L1.50073 12.389ZM7.30073 10.449C8.79073 9.72902 9.42073 7.93902 8.71073 6.44902C7.99073 4.95902 6.20073 4.32902 4.70073 5.04902C3.21073 5.75902 2.58073 7.54902 3.30073 9.04902C4.01073 10.539 5.80073 11.169 7.30073 10.449Z"/></svg>

<svg xmlns="http://www.w3.org/2000/svg" width="24" height="24" viewBox="0 0 24 24" fill='currentColor'><path d="m22.25 14.539-.69 1.89-12.36-4.47 2.08-5.66 8.56 3.09a4 4 0 0 1 2.41 5.15M1.5 12.389l6.5 2.34v4.52h8v-1.63l4.52 1.63.69-1.89-19.02-6.86zm5.8-1.94a3.01 3.01 0 0 0 1.41-4 3.005 3.005 0 0 0-4.01-1.4 2.99 2.99 0 0 0-1.4 4 2.99 2.99 0 0 0 4 1.4"/></svg>
